X:1
T:KRIEGERS AHNUNG
T:KRIEGERS AHNUNG
T:Copyright © 2006
T:Copyright © 2006
T:Copyright © 2006
T:Copyright © 2006
T:Copyright © 2006
T:Copyright © 2006
T:Copyright © 2006
T:Copyright © 2006
T:Copyright © 2006
T:Copyright © 2006
T:Copyright © 2006
T:Copyright © 2006
T:Copyright © 2006
T:Copyright © 2006
T:Copyright © 2006
T:Copyright © 2006
Z:Copyright © 2006
%%score 1 { 2 | 3 }
L:1/8
M:3/4
K:Cmin
V:1 bass nm="Baritone" snm="Bar."
V:2 treble nm="Piano" snm="Pno."
V:3 bass 
V:1
"^Andantino" z6 | z6 | z6 | z6 | z6 | z6 | z6 | z6 | z4 z z/ G,/ | G,>G, C3 G, | E,>D, C,3 B,, | %11
w: ||||||||In|tie- fer Ruh' liegt|um mich her der|
 =A,,>=A, A,2 A,2 | G,4 z2 | z6 | z4 z z/ G,/ | G,>G, A,2- A,>G, | ^F,>D, G,2 z2 | z4 z z/ G,/ | %18
w: Waf- fen brü- der|Kreis.||Mir|ist das Herz _ so|bang und schwer,|so|
 ^F,>D, G,2 z G, | G,>A, B,2 (3(D{ED}CD) | E6- | E2 z2 z E | E3- E/F,/ F,2 | z2 F,2 _G,2 | G,6 | %25
w: bang, so schwer, von|Sehn- sucht mir so _ _|heiss,|_ von|Sehn- * * sucht|mir so|heiss.|
 z6 | z6 | z6 ||[M:4/4] z4 z2 z A, | A,2 E,2 C3 A, | F,3 B, (B,2 E,)_D | C2 _D2 E3 C | B,6 B,2 | %33
w: |||Wie|hab' ich oft so|süss ge- traümt _ an|ih- rem Bu- sen|warm, an|
 B,2 C2 _D3 B, | =A,6 z _A, | A,2 E,2 C3 A, | F,3 B, (B,2 E,)_D | C2 _D2 E3 C | B,6 B,2 | %39
w: ih- rem Bu- sen|warm, wie|freund- lich schien des|Heer- des Gluth, _ lag|sie in mei- nem|Arm, lag|
 B,2 =B,2 _D3 _B, | A,6 z2 | z8 | z4 z2 ^C,2 | ^C,3 C, C,2 C,2 | ^F,3 F, F,4 | z2 ^C4 ^C,C, | %46
w: sie in mei- nem|Arm.||Hier,|wo der Flam- men|düst' rer Schein,|ach, nur auf|
 ^F,3 F, F,4 | z4 z2 =A,2 | =A,2 A,2 A,2 A,2 | C3 (=B, =A,4) | z4 z2 C2 | C2 C2 C2 C2 | %52
w: Waf- fen spielt,|heir|fühlt die Brust sich|ganz al- lein,|hier|fühlt die Brust sich|
 C3 A, F,4- | F,2 z2 z2 C2 | _D4- DB,B,_G, | F,2 A,4 G,2 | F,2 C2 F2 C2 | A,4 G,4 | F,4 z4 | %59
w: ganz al- lein,|_ der|Weh _ _ mu- th|Thrä- * ne|quillt, der Weh- muth|Thrä- ne|quillt.|
"^rit.""^Allegro agitato"[Q:1/4=120] z8 ||[K:Amin][M:6/8] z6 | z6 | G,3 z ^G,G, | G,2 G, (^G,F)D | %64
w: |||Herz, dass der|Trost dich nicht _ ver-|
 B,3 z ^G,G, | G,2 G, (^G,F)D | B,3- B, z E, | A,2 B, C2 D | E6- | E2 z z3 | z3 (E2 D) | (D3 C3-) | %72
w: lässt, dass der|Trost dich nicht _ ver-|lässt, _ es|ruft noch man- che|Schlact.|_|Bald _|ruh' _|
 C3- C2 B, | (B,3 A,3) | z3 (A,2 G,) | (G,2 F,) F3- | F3- F2 E | (E3 D3) | z3 D3 | _E3 C z z | %80
w: _ _ ich|wohl _|und _|schla- * *|* * fe|fest, _|Herz-|lieb- ste!|
 F3- F2 _D | C6 | z2 z C3 | C3 F3 | G,3- G,A,G, | F,6 | z6 |!mf! G,3 z ^G,G, | G,2 G, (^G,_B,)G, | %89
w: gu- * te|Nacht!|Herz-|lieb- ste!|gu- * * te|Nacht!||Herz, dass der|Trost dich nicht _ ver-|
 G,3 z _B,B, | A,2 A, (_B,C)B, | A,3- A, z z | z3 z z ^C | D2 D F2 F | E6- | E2 z z3 | z6 | %97
w: lässt, dass der|Trost dich nicht _ ver|lässt, _|es|ruft noch man- che|Schlact.|_||
 z3 (E2 D) | (D3 C3-) | C3- C2 B, | B,3 A,3 | z3 A,2 G, | G,2 F, F3- | F3- F2 E | E3 D3 | z3 D3 | %106
w: Bald _|ruh' _|_ _ ich|wohl _|und _|schla- * *|* * fe|fest. _|Herz-|
 _E3 C3 | F3- F2 ^C | C6 | z3!mf! ^F,3 ||[K:Cmin][M:3/4]"^Tempo I" G,6 | G,2 z2 z2 | %112
w: lieb- ste!|gu- * te|Nacht!|Herz-|lieb-|ste!|
 z2 G,2- G,>G, | !fermata!A,6 | z6 | z4 =A,2 | C4 G,2 | z2 G,2- G,>G, | G,6- | G,2 z2 z2 | z6 |] %121
w: gu- * te|Nacht!||Herz-|lieb- ste!|gu- * te|Nacht!|_||
V:2
 [G,CE]3- [G,CE]/[G,CE]/ [G,CE] z | [G,CE]3- [G,CE]/[G,CE]/ [G,CE] z | [G,CE]2 [G,CE]2 [G,CE]2 | %3
 [A,=B,D]3-!>(! [A,B,D]/!>)![A,B,D]/ !fermata![A,B,D] z |!p! [=A,CD]3- [A,CD]/[A,CD]/ [A,CD] z | %5
 [=A,CD]3- [A,CD]/[A,CD]/ [A,CD] z | [G,CE]2 [G,CD]2 [G,=B,E]2 | %7
 [E,G,C]3- [E,G,C]/[E,G,C]/ [E,G,C] z | [E,G,C]3- [E,G,C]/[E,G,C]/ [E,G,C] z | %9
 [E,G,C]3- [E,G,C]/[E,G,C]/ [E,G,C] z | [E,G,C]3- [E,G,C]/[E,G,C]/ [E,G,C] z | %11
 [E,_G,C]2 [E,G,C]2 [E,G,C]2 | [E,G,C]2 [D,=B,]2 [G,C]>[G,B,D] | [G,CE]2 [F,CE]2 [_G,CE]2 | %14
 [G,CE]2 [=B,D]2- .[B,D]>[D,B,D] |!<(! [D,=B,D]>[D,B,D]!<)! [D,B,D]4 | %16
 [D,CD]>[D,CD] [D,=B,D]2- [D,B,D]>[G,B,DG] | %17
!<(! [G,=B,DG]>[G,B,DG]!<)! [A,DFA]2-!>(! !tenuto![A,DFA]>[G,G]!>)! | %18
 !tenuto![_G,CE_G]>D [=G,=B,D=G]4 |"^cresc." [B,EG]>[A,EA] [B,EB]2 [DFB]2 |!f!!>(! [E_G=A]6-!>)! | %21
 [EGA]2 [E_G=A]2!p! [E=GB]2 | [EFc]6 |"^cresc." [EF-c-]2 [DFc]2 [C^Fc]2 | %24
!f! [DG=B]3-!>(! [DGB]/[DGB]/ [DGB]!>)! z | [EGc]3- [EGc]/[EGc]/ [EGc] z | %26
"^dim." [=B,DG]3- [B,DG]/[B,DG]/ [CEG] z |!p! !fermata![=B,DG]4 z2 || %28
[M:4/4] (3CEC (3A,E,A, (3CEC (3A,E,A, | (3CEC (3A,E,A, (3CEC (3A,E,A, | %30
 (3DFD (3A,F,A, (3_DED (3G,E,G, |!<(! (3A,EE, (3B,E!<)!E,!>(! (3CEE, (3A,E!>)!E, | %32
 (3G,EE, (3G,EE, (3G,EE,"^dim." (3_G,B,E | (3_DB,F, (3ECF, (3FDF, (3DB,F, | %34
 (3C=A,F, (3CA,F, (3CA,F, (3C_A,F, | (3CEC (3A,E,A, (3CEC (3A,E,A, | %36
 (3DFD (3A,F,A, (3_DED (3G,E,G, |!<(! (3A,EE, (3B,E!<)!E,!>(! (3CEE, (3A,E!>)!E, | %38
 (3G,EE, (3G,EE, (3G,EE, (3_G,_D_D, | (3_G,_D_D, (3A,DD, (3B,DD, (3G,DD, | %40
 (3F,_D_D, (3F,DD, (3F,DD, (3F,DD, | (3F,A,_D (3A,F,_D, (3A,,F,,E,, (3(._D,,.D,,.D,,) | %42
!mp! (6:4:6z [_D,_D][D,D][D,D][D,D][D,D] (3[D,D][D,D][D,D] (3[D,D][D,D][D,D] | %43
 (3[^C,^C][C,C][C,C] (3[_D,=B,_D][D,B,D][D,B,D] (3[D,=A,D][D,A,D][D,A,D] (3[D,_A,D][D,A,D][D,A,D] | %44
!>(! (3[^C,=A,^C][C,A,C][C,A,C] (3[C,A,C][C,A,C][C,A,C] (3[C,A,C][C,A,C][C,A,C]!>)! (3[C,A,C][C,A,C][C,=B,C] | %45
 (3[_D,_D][D,D][D,D] (3[D,=B,D][D,B,D][D,B,D] (3[D,=A,D][D,A,D][D,A,D] (3[D,_A,D][D,A,D][D,A,D] | %46
 (3[^C,=A,^C][C,A,C][C,A,C] (3[C,A,C][C,A,C][C,A,C] (3[C,A,C][C,A,C][C,A,C] (3[C,A,C][C,A,C][C,A,C] | %47
 (3[^C,=A,^C][_G,A,C][G,A,C] (3[G,A,C][G,A,C][G,A,C] (3[G,A,C][G,A,C][G,A,C] (3[G,A,C][G,A,C][G,A,C] | %48
!<(! (3[_G,=A,_D][G,A,D][G,A,D] (3[G,A,D][G,A,D][G,A,D] (3[F,A,D][F,A,D][F,A,D] (3[F,A,C][F,A,C]!<)![F,A,C] | %49
 (3[=E,=A,C]!>(![E,A,C][E,A,C] (3[E,A,C][E,A,C][E,A,C] (3[E,A,C][E,A,C][E,A,C] (3[E,A,C][E,A,C][E,A,C]!>)! | %50
 (3[=E,=A,C][E,A,C][E,A,C] (3[E,A,C][E,A,C][E,A,C] (3[E,A,C][E,A,C][E,A,C] (3[E,A,C][E,A,C][E,A,C] | %51
!<(! (3[=E,=A,C][E,A,C][E,A,C] (3[E,A,C][E,A,C][E,A,C] (3[E,A,C][E,A,C][E,A,C] (3[E,A,C][E,A,C]!<)![E,A,C] | %52
 (3[F,A,C]!>(![F,A,C][F,A,C] (3[F,A,C][F,A,C][F,A,C] (3[F,A,C][F,A,C][F,A,C] (3[F,A,C][F,A,C]!>)![F,A,C] | %53
 (3[F,A,C][F,CF][F,CF] (3[F,CF][F,CF][F,CF] (3[F,CF][F,CF][F,CF] (3[CEF][CEF][CEF] | %54
!<(! (3[B,_D_G][B,DG][B,DG] (3[A,DF][A,DF][A,DF]!<)!!>(! (3[B,DG][B,DG][B,DG] (3[B,G][B,G]!>)![B,G] | %55
 (3[A,CF][A,CF][A,CF] (3[A,CF][A,CF][A,CF] (3[B,CF][B,CF][B,CF] (3[B,C=E][B,CE][B,CE] | %56
 (3[A,CF][A,CF][A,CF] (3[=A,D^F][A,DF][A,DF] (3[B,=F][B,F]!>(![B,F] (3[B,F][B,F]!>)![B,FG] | %57
 (3[CFA][CFA][CFA] (3[CFA][CFA][CFA] (3[B,FG][B,FG][B,FG] (3[B,=EG][B,EG][B,EG] | %58
 (3[A,F][A,F][A,F] (3[A,F][A,F][A,F] (3[A,F][A,F][A,F] (3[A,F][A,F][A,F] | %59
 (3[A,F][A,F][A,F] (3[A,CF][A,CF][A,CF] (3[A,CF][A,CF][A,CF] (3[A,CF][A,CF][A,CF] || %60
[K:Amin][M:6/8]!p! G,/B,/D/F/D/B,/ ^G,/B,/D/F/D/B,/ | G,/B,/D/F/D/B,/ ^G,/B,/D/F/D/B,/ | %62
 G,/B,/D/F/D/B,/ ^G,/B,/D/F/D/B,/ | G,/B,/D/F/D/B,/ ^G,/B,/D/F/D/B,/ | %64
 G,/B,/D/F/D/B,/ ^G,/B,/D/F/D/B,/ | G,/B,/D/F/D/B,/ ^G,/B,/D/F/D/B,/ | %66
 G,/B,/D/F/D/B,/ ^G,/B,/D/E/D/B,/ | E,/A,/C/E/C/A,/ D,/F,/A,/D/A,/F,/ | %68
 E,/^G,/B,/E/B,/G,/ E,/A,/C/E/C/A,/ |"^dim." E,/^G,/B,/E/B,/G,/ E,/A,/C/E/C/A,/ | %70
 E,/^G,/B,/E/B,/G,/ E, z z | z [CG]G, z [CG]G, | z [CG]G, z [CG]^G, | z [CA]A, z [CA]A, | %74
 z [^CG]A, z [CG]A, | z [DF]A, z [DF]A, | z [DF]^G, z [DF]G, | z [DF]G, z [DF]G, | %78
 z [DF]G, z [DF]G, | z [C_E]G, z [CE]_A, | z [_A,_B,F]F, z [G,_D_E]_E, | z [_A,C_E]_E, z [A,CE]E, | %82
 z!<(! [_B,CE]E, z [B,CE]!<)!E, | z!>(! [A,CF]F, z [A,CF]!>)!F, | z [DF]G, z [_B,CE]G, | %85
 z [A,CF]F, z [A,CF]F, | z [A,CF]F, z [_A,CF]F, | G,/B,/D/F/D/B,/ ^G,/B,/D/F/D/B,/ | %88
"^cresc." G,/B,/D/F/D/B,/ ^G,/B,/D/F/D/B,/ | G,/B,/D/F/D/B,/ _B,/C/E/G/E/C/ | %90
 A,/^C/E/G/E/C/ _B,/C/E/G/E/C/ | A,/^C/E/G/E/C/ _B,/C/E/G/E/C/ | A,/^C/E/G/E/C/ _B,/C/E/G/E/C/ | %93
 F,/_B,/D/F/D/B,/ F,/A,/D/F/D/A,/ | E,/!>(!B,/D/E/D/B,/ E,/A,/C/E/C/!>)!A,/ | %95
 E,/B,/D/E/D/B,/ E,/A,/C/E/C/A,/ |"^dim." E,/^G,/B,/E/B,/G,/ E,/G,/B,/E/B,/G,/ | %97
 E,/^G,/B,/E/B,/G,/ E, z z | z [CG]G, z [CG]G, | z [CG]G, z [C_A]^G, | z [CA]A, z [CA]A, | %101
 z [^CG]G, z [CG]G, | z [DF]A, z [DF]A, | z [DF]^G, z [DF]G, | z [DF]G, z [DF]G, | %105
 z [DF]G, z [DF]G, | z [C_E]G, z [CE]^G, | z [_A,_B,F]F, z [G,_D_E]_E, | z [_A,C_E]_E, z [A,CE]E, | %109
 z!<(! [G,C_E]_E,!<)! z!>(! [_G,CE]!>)!E, ||[K:Cmin][M:3/4]!p! [G,CE]3- [G,CE]/[G,CE]/ [G,CE] z | %111
 [G,CE]3- [G,CE]/[G,CE]/ [G,CE] z | [G,CE]2 [G,CE]2 [G,CE]2 | %113
 [A,=B,D]3-!>(! [A,B,D]/[A,B,D]/ !fermata![A,B,D]!>)! z |!p! [=A,CD]3- [A,CD]/[A,CD]/ [A,CD] z | %115
 [=A,CD]3- [A,CD]/[A,CD]/ [A,CD] z | [G,CE]3- [G,CE]/[G,CE]/ [G,CE] z | %117
 [G,CD]2 [G,=B,D]2 [G,B,E]2 | [E,G,C]3- [E,G,C]/[E,G,C]/ [E,G,C] z | %119
 [E,G,C]3- [E,G,C]/[E,G,C]/ [E,G,C] z | !fermata![E,G,C]6 |] %121
V:3
!p! [C,,C,]3- [C,,C,]/[C,,C,]/ [C,,C,] z | [C,,C,]3- [C,,C,]/[C,,C,]/ [C,,C,] z | %2
 [C,,C,]2 [E,,E,]2 [C,,C,]2 | [F,,F,]3- [F,,F,]/[F,,F,]/ !fermata![F,,F,] z | %4
 [^F,,,^F,,]3- [F,,,F,,]/[F,,,F,,]/ [F,,,F,,] z | [^F,,,^F,,]3- [F,,,F,,]/[F,,,F,,]/ [F,,,F,,] z | %6
 [G,,,G,,]2 [G,,,G,,]2 [G,,,G,,]2 | [C,,C,]3- [C,,C,]/[C,,C,]/ [C,,C,] z | %8
 [C,,C,]3- [C,,C,]/[C,,C,]/ [C,,C,] z | [C,,C,]3- [C,,C,]/[C,,C,]/ [C,,C,] z | %10
 [C,,C,]3- [C,,C,]/[C,,C,]/ [C,,C,][B,,,B,,] | [=A,,,=A,,]2 [A,,,A,,]2 [A,,,A,,]2 | %12
 [G,,,G,,]3- [G,,,G,,]/G,,/ [E,,E,]>[D,,D,] | [C,,C,]>[B,,,B,,] [=A,,,=A,,]2 [_A,,,_A,,]2 | %14
 [G,,,G,,]4 z3/2 G,,/ | G,,>G,,!>(! A,,2- A,,>!>)!G,, | _G,,>D,, =G,,2- G,,>[G,,D,] | %17
 [G,,D,]>[G,,D,] [A,,D,]2- !tenuto![A,,D,]>G,, | [^F,,D,]>D,, [G,,D,]4 | %19
 [E,G,]>[=B,,E,] [_B,,E,G,]2 [B,,F,A,]2 | [C,^F,=A,]6- | [C,F,A,]2 C,2 B,,2 | =A,,6 | %23
 [A,,,A,,]4 [A,,,A,,]2 | [G,,,G,,]3- [G,,,G,,]/[G,,,G,,]/ [G,,,G,,] z | %25
 [G,,,G,,]3- [G,,,G,,]/[G,,,G,,]/ [G,,,G,,] z | [G,,,G,,]3- [G,,,G,,]/[G,,,G,,]/ [C,,C,] z | %27
 !fermata![G,,,G,,]4 z2 ||[M:4/4] A,,,2 A,, z A,,,2 A,, z | A,,,2 A,, z A,,,2 A,, z | %30
 A,,,2 A,, z A,,,2 A,, z | [A,,,A,,]6 C,,2 | E,,8 | B,,,6 _D,,2 | F,,6 A,, z | %35
 A,,,2 A,, z A,,,2 A,, z | A,,,2 A,, z A,,,2 A,, z | [A,,,A,,]6 C,,2 | E,,6 [_G,,,_G,,]2 | %39
 [_G,,,_G,,]6 B,,,2 | _D,,8- | D,,2 z2 z4 | (3_D,,D,,D,, (3D,,D,,D,, (3D,,D,,D,, (3D,,D,,D,, | %43
 [^C,,^C,]2 [=B,,,=B,,]2 [=A,,,=A,,]2 [_A,,,_A,,]2 | [=A,,,=A,,]6 [A,,,A,,]>[=B,,,=B,,] | %45
 [_D,,_D,]2 [=B,,,=B,,]2 [=A,,,=A,,]2 [_A,,,_A,,]2 | [=A,,,=A,,]8- | %47
 [A,,,A,,]2 [=A,,,=A,,]2 [A,,,A,,]2 [A,,,A,,]2 | [=A,,,=A,,]2 [A,,,A,,]2 [A,,,A,,]2 [A,,,A,,]2 | %49
 [=A,,,=A,,]3 [A,,,A,,] [A,,,A,,]4- | [A,,,A,,]2 [=A,,,=A,,]2 [A,,,A,,]2 [A,,,A,,]2 | %51
 [=A,,,=A,,]2 [A,,,A,,]2 [A,,,A,,]2 [A,,,A,,]2 | [A,,,A,,]3 [A,,,A,,] [A,,,A,,]4- | %53
 [A,,,A,,]2 [A,,,A,,]2 [A,,,A,,]2 [=A,,,=A,,]2 | [B,,,B,,]2 [=B,,,=B,,]2 [_B,,,_B,,]2 [_D,,_D,]2 | %55
 [C,,C,]6 [C,,C,]2 | [F,,F,]2 [E,,E,]2 [D,,D,]2 [_D,,_D,]2 | [C,,C,]8 | [F,,,F,,]8- | %59
 [F,,,F,,]2 [A,,,A,,]2 [A,,,A,,]2 [A,,,A,,]2 ||[K:Amin][M:6/8] G,,2- [G,,D,F,] ^G,,2- [G,,D,F,] | %61
 G,,2- [G,,D,F,] ^G,,2- [G,,D,F,] | G,,2- [G,,D,F,] ^G,,2- [G,,D,F,] | %63
 G,,2- [G,,D,F,] ^G,,2- [G,,D,F,] | G,,2- [G,,D,F,] ^G,,2- [G,,D,F,] | %65
 G,,2- [G,,D,F,] ^G,,2- [G,,D,F,] | G,,2- [G,,D,F,] ^G,,2- [G,,D,E,] | %67
 A,,2- [A,,C,E,] F,,2- [F,,A,,D,] | E,,2- [E,,^G,,B,,] E,,2- [E,,A,,C,] | %69
 E,,2- [E,,^G,,B,,] E,,2- [E,,A,,C,] | E,,2- [E,,^G,,B,,] E,, z z |!mp! [E,,E,] z z [E,,E,] z z | %72
 [E,,E,] z z [E,,E,] z z | [F,,F,] z z [F,,F,] z z | [E,,E,] z z [E,,E,] z z | %75
 [D,,D,] z z [D,,D,] z z | [C,,C,] z z [C,,C,] z z | [B,,,B,,] z z [B,,,B,,] z z | %78
 [B,,,B,,] z z [B,,,B,,] z z | [C,,C,] z z [_A,,,_A,,] z z | [^C,,^C,] z z _E,, z z | %81
 [^G,,,^G,,] z z [G,,,G,,] z z | [G,,,G,,] z z [G,,,G,,] z z | [F,,,F,,] z z [A,,,A,,] z z | %84
 [_B,,,_B,,] z z [C,,C,] z z | [F,,,F,,] z z [F,,,F,,] z z | [F,,,F,,] z z [^G,,,^G,,] z z | %87
 G,,2- [G,,D,F,] ^G,,2- [G,,D,F,] | G,,2- [G,,D,F,] ^G,,2- [G,,D,F,] | %89
 G,,2- [G,,D,F,] _B,,2- [B,,E,G,] | A,,2- [A,,E,G,] _B,,2- [B,,E,G,] | %91
 A,,2- [A,,E,G,] _B,,2- [B,,E,G,] | A,,2- [A,,E,G,] _B,,2- [B,,E,G,] | %93
 _B,,2- [B,,D,F,] A,,2- [A,,D,F,] |!f! ^G,,2- [G,,B,,E,] A,,2- [A,,C,E,] | %95
 ^G,,2- [G,,B,,E,] A,,2- [A,,C,E,] | E,,2- [E,,^G,,B,,] E,,2- [E,,G,,B,,] | %97
 E,,2- [E,,^G,,B,,] E,, z z | [E,,E,] z z [E,,E,] z z | [E,,E,] z z [E,,E,] z z | %100
 [F,,F,] z z [F,,F,] z z | [E,,E,] z z [E,,E,] z z | [D,,D,] z z [D,,D,] z z | %103
 [C,,C,] z z [C,,C,] z z | [B,,,B,,] z z [B,,,B,,] z z | [B,,,B,,] z z [B,,,B,,] z z | %106
 [C,,C,] z z [^G,,,^G,,] z z | [^C,,^C,] z z _E,, z z | [^G,,,^G,,] z z [G,,,G,,] z z | %109
 [^G,,,^G,,] z z [G,,,G,,] z z ||[K:Cmin][M:3/4] [G,,,G,,]3- [G,,,G,,]/[G,,,G,,]/ [G,,,G,,] z | %111
 [G,,,G,,]3- [G,,,G,,]/[G,,,G,,]/ [G,,,G,,] z | [G,,,G,,]2 [C,,C,]2 [E,,E,]2 | %113
 [F,,F,]3- [F,,F,]/[F,,F,]/ !fermata![F,,F,] z | [_G,,,_G,,]3- [G,,,G,,]/[G,,,G,,]/ [G,,,G,,] z | %115
 [_G,,,_G,,]3- [G,,,G,,]/[G,,,G,,]/ [G,,,G,,] z | [G,,,G,,]3- [G,,,G,,]/[G,,,G,,]/ [G,,,G,,] z | %117
 [G,,,G,,]2 [G,,,G,,]2 [G,,,G,,]2 | [C,,,C,,]3- [C,,,C,,]/[C,,,C,,]/ [C,,,C,,] z | %119
 [C,,,C,,]3- [C,,,C,,]/[C,,,C,,]/ [C,,,C,,] z | !fermata![C,,,C,,]6 |] %121

